X:1
T:Title
%%score { ( 1 2 ) | 3 } 4
L:1/8
Q:1/4=100
M:2/4
K:Bb
V:1 treble nm="Grand Piano"
V:2 treble 
V:3 bass 
V:4 treble nm="Bright Piano"
V:1
 dA [DA]2 | cG [DG]2 | [A,EF]2 [A,EG]2 | [A,EF]2 z2 | z4 | z4 | z4 | z4 | z4 | z4 | z4 | z4 | z4 | %13
w: H.~W.~Petrie * *|||||||||||||
 z4 | z C CC | E,C CC | E,C C,C | F,D G,D | F,,A, A,A, | F,2 z2 | B,,D DD | B,,D DD | E,C CC | %23
w: ||||||||||
 E,C CC | F,,A, A,A, | F,,A, A,A, | B,,B, B,B, | B,,B, B,B, | G,,=B, B,B, | G,,=B, B,B, | C,C CC | %31
w: ||||||||
 C,C CC | E,C C,C | F,D G,D | F,,A, A,A, | B,F, B,,2 |] %36
w: |||||
V:2
 D2 z2 | D2 z2 | x4 | x4 | x4 | x4 | x4 | x4 | x4 | x4 | x4 | x4 | x4 | x4 | x4 | x4 | x4 | x4 | %18
 x4 | x4 | x4 | x4 | x4 | x4 | x4 | x4 | x4 | x4 | x4 | x4 | x4 | x4 | x4 | x4 | x4 | x4 |] %36
V:3
 B,,F, F,,F, | B,,F, F,,F, | C,F, F,,F, | C,F, F,,F, | B,,F, F,,F, | B,,F, F,,F, | C,F, F,,F, | %7
 C,F, F,,F, | C,F, F,,F, | C,F, F,,F, | B,,F, F,,F, | B,,F, F,,F, | B,,F, F,,F, | B,,F, F,,F, | %14
 E,G, G,G, | z G, G,G, | z G, z G, | z B, z B, | z F, F,F, | B,,2 z2 | z [F,B,] [F,B,][F,B,] | %21
 z [F,B,] [F,B,][F,B,] | z G, G,G, | z G, G,G, | z F, F,F, | z F, F,F, | z F, F,F, | z F, F,F, | %28
 z [D,G,] [D,G,][D,G,] | z [D,G,] [D,G,][D,G,] | z [E,G,] [E,G,][E,G,] | z G, G,G, | z G, z G, | %33
 z B, z B, | z F, F,F, | B,,F,, B,,,2 |] %36
V:4
 z4 | z4 | z4 | z4 | [Dd][DA] [DA]>[DA] | [Dc][DG] [DG]2 | [EB][CE] [CE][EB] | [EA]4 | %8
 [Ec][EG] [EG]>[EG] | [EB][CE] [CE]2 | [DA][DF] [DF][DG] | [DF]4 | [Dd][DA] [DA]>[DA] | %13
 [Dc][DG] [DG]2 | [Fd][Ec] [EG][Fd] | [Ec]4 | [Ec]>[Fd] [Ge][Ec] | [Ff][Fd] [GB]G | [Fd]2 [Ec]2 | %19
 [DB]4 | [Fd]4 | [Fd]3 [Fd] | [Fd][Ec] [EG][Fd] | [Ec]4 | [Ec]4 | [Ec]3 [Ec] | [Ec][DB] [DF][DG] | %27
 [DF]4 | [Fd]4 | [G=B]3 [Fd] | [Fd][Ec] [EG][Fd] | [Ec]3 [Ec] | [Ec]>[Fd] [Ge][Ec] | %33
 [Ff][Fd] [GB]G | [Fd]2 [Fd]>[Ec] | [DFB]4 |] %36

